packages/opendesign/src/icons/svgs/fill/question.svg

<?xml version="1.0" encoding="UTF-8"?>
<svg width="24px" height="24px" viewBox="0 0 24 24" version="1.1" xmlns="http://www.w3.org/2000/svg" xmlns:xlink="http://www.w3.org/1999/xlink">
    <title>question</title>
    <g id="question" stroke="none" stroke-width="1" fill="none" fill-rule="evenodd">
        <path d="M12,1.3 C13.1111573,1.3 14.2002822,1.46963392 15.2392212,1.79926977 C15.6077175,1.91618669 15.8116628,2.30969181 15.6947458,2.67818803 C15.5778289,3.04668426 15.1843238,3.25062958 14.8158276,3.13371265 C13.9134204,2.84739581 12.967074,2.7 12,2.7 C6.86375183,2.7 2.7,6.86375183 2.7,12 C2.7,17.1362482 6.86375183,21.3 12,21.3 C17.1362482,21.3 21.3,17.1362482 21.3,12 C21.3,9.02216479 19.8916528,6.28006422 17.5475533,4.53500342 C17.2374495,4.30414713 17.1732066,3.86561227 17.4040629,3.5555084 C17.6349192,3.24540453 18.073454,3.18116167 18.3835579,3.41201796 C21.0788388,5.41851516 22.7,8.57497193 22.7,12 C22.7,17.9094468 17.9094468,22.7 12,22.7 C6.09055318,22.7 1.3,17.9094468 1.3,12 C1.3,6.09055318 6.09055318,1.3 12,1.3 Z M12.25,16.7 C12.6642136,16.7 13,17.0357864 13,17.45 C13,17.8642136 12.6642136,18.2 12.25,18.2 C11.8357864,18.2 11.5,17.8642136 11.5,17.45 C11.5,17.0357864 11.8357864,16.7 12.25,16.7 Z M12.5,5.8 C14.8314519,5.8 16.4658763,7.37812474 16.4658763,9.68667152 C16.4658763,10.9303026 15.7942923,11.9133366 14.611104,12.8754944 L14.211427,13.1822689 L13.3609216,13.8246367 L13.2499787,13.9161889 C13.1341529,14.0264553 13.0469182,14.1741715 12.9862745,14.3582427 C12.9176969,14.5663959 12.8902003,14.7843733 12.8886492,15.0203272 L12.8968916,15.3325585 C12.8968916,15.7191578 12.583491,16.0325585 12.1968916,16.0325585 C11.8425089,16.0325585 11.5496334,15.7692148 11.5032818,15.4275443 L11.4933875,15.2604872 C11.4737119,14.7994748 11.506931,14.3743932 11.6565799,13.9201648 C11.7854181,13.5291034 11.989942,13.1827789 12.2846626,12.9022042 L12.3513916,12.8432842 L12.5667305,12.670559 L13.6613367,11.8416423 C13.6887053,11.8204972 13.7111924,11.8028255 13.7278224,11.7893021 C14.6159743,11.0670652 15.0658763,10.4085193 15.0658763,9.68667152 C15.0658763,8.16251722 14.0690212,7.2 12.5,7.2 C10.9536027,7.2 9.7,8.4536027 9.7,10 C9.7,10.3865993 9.38659932,10.7 9,10.7 C8.61340068,10.7 8.3,10.3865993 8.3,10 C8.3,7.68040405 10.1804041,5.8 12.5,5.8 Z" id="path1" fill="#000000"></path>
    </g>
</svg>

<!-- Generated by IcoMoon.io -->
<svg version="1.1" xmlns="http://www.w3.org/2000/svg" width="24" height="24" viewBox="0 0 24 24">
<title>question</title>
<path d="M12 1.3c1.111 0 2.2 0.17 3.239 0.499 0.369 0.117 0.572 0.51 0.456 0.879s-0.51 0.572-0.879 0.456c-0.902-0.286-1.849-0.434-2.816-0.434-5.136 0-9.3 4.164-9.3 9.3s4.164 9.3 9.3 9.3c5.136 0 9.3-4.164 9.3-9.3 0-2.978-1.408-5.72-3.752-7.465-0.31-0.231-0.374-0.669-0.143-0.98s0.669-0.374 0.98-0.143c2.695 2.007 4.316 5.163 4.316 8.588 0 5.909-4.791 10.7-10.7 10.7s-10.7-4.791-10.7-10.7c0-5.909 4.791-10.7 10.7-10.7zM12.25 16.7c0.414 0 0.75 0.336 0.75 0.75s-0.336 0.75-0.75 0.75c-0.414 0-0.75-0.336-0.75-0.75s0.336-0.75 0.75-0.75zM12.5 5.8c2.331 0 3.966 1.578 3.966 3.887 0 1.244-0.672 2.227-1.855 3.189l-0.4 0.307-0.851 0.642-0.111 0.092c-0.116 0.11-0.203 0.258-0.264 0.442-0.069 0.208-0.096 0.426-0.098 0.662l0.008 0.312c0 0.387-0.313 0.7-0.7 0.7-0.354 0-0.647-0.263-0.694-0.605l-0.010-0.167c-0.020-0.461 0.014-0.886 0.163-1.34 0.129-0.391 0.333-0.737 0.628-1.018l0.067-0.059 0.215-0.173 1.095-0.829c0.027-0.021 0.050-0.039 0.066-0.052 0.888-0.722 1.338-1.381 1.338-2.103 0-1.524-0.997-2.487-2.566-2.487-1.546 0-2.8 1.254-2.8 2.8 0 0.387-0.313 0.7-0.7 0.7s-0.7-0.313-0.7-0.7c0-2.32 1.88-4.2 4.2-4.2z"></path>
</svg>
